flaticon/essential/user.svg

<svg xmlns="http://www.w3.org/2000/svg" width="32" height="32" viewBox="0 0 24 24">
    <path d="M 19.207031 17.15625 L 15.382812 15.246094 C 15.023438 15.066406 14.800781 14.703125 14.800781 14.300781 L 14.800781 12.945312 C 14.890625 12.835938 14.988281 12.707031 15.085938 12.566406 C 15.582031 11.867188 15.980469 11.085938 16.269531 10.246094 C 16.832031 9.988281 17.199219 9.429688 17.199219 8.800781 L 17.199219 7.199219 C 17.199219 6.816406 17.054688 6.441406 16.800781 6.148438 L 16.800781 4.023438 C 16.824219 3.800781 16.910156 2.492188 15.964844 1.414062 C 15.140625 0.476562 13.808594 0 12 0 C 10.191406 0 8.859375 0.476562 8.035156 1.410156 C 7.089844 2.492188 7.175781 3.800781 7.199219 4.023438 L 7.199219 6.148438 C 6.945312 6.441406 6.800781 6.816406 6.800781 7.199219 L 6.800781 8.800781 C 6.800781 9.285156 7.019531 9.742188 7.398438 10.042969 C 7.765625 11.496094 8.53125 12.585938 8.800781 12.9375 L 8.800781 14.261719 C 8.800781 14.648438 8.589844 15.003906 8.25 15.191406 L 4.679688 17.136719 C 3.519531 17.769531 2.800781 18.984375 2.800781 20.304688 L 2.800781 21.601562 C 2.800781 23.5 8.816406 24 12 24 C 15.183594 24 21.199219 23.5 21.199219 21.601562 L 21.199219 20.382812 C 21.199219 19.007812 20.4375 17.769531 19.207031 17.15625 Z M 20.398438 21.601562 C 20.398438 22.144531 17.433594 23.199219 12 23.199219 C 6.566406 23.199219 3.601562 22.144531 3.601562 21.601562 L 3.601562 20.304688 C 3.601562 19.277344 4.160156 18.332031 5.0625 17.839844 L 8.632812 15.894531 C 9.230469 15.566406 9.601562 14.941406 9.601562 14.261719 L 9.601562 12.65625 L 9.507812 12.542969 C 9.496094 12.53125 8.515625 11.34375 8.144531 9.71875 L 8.105469 9.558594 L 7.96875 9.472656 C 7.738281 9.320312 7.601562 9.070312 7.601562 8.800781 L 7.601562 7.199219 C 7.601562 6.976562 7.695312 6.765625 7.867188 6.609375 L 8 6.492188 L 8 4 L 7.996094 3.949219 C 7.996094 3.9375 7.859375 2.828125 8.636719 1.9375 C 9.300781 1.183594 10.433594 0.800781 12 0.800781 C 13.5625 0.800781 14.691406 1.179688 15.355469 1.929688 C 16.132812 2.8125 16.003906 3.9375 16.003906 3.949219 L 16 6.492188 L 16.132812 6.609375 C 16.304688 6.765625 16.398438 6.976562 16.398438 7.199219 L 16.398438 8.800781 C 16.398438 9.148438 16.171875 9.453125 15.832031 9.558594 L 15.632812 9.621094 L 15.566406 9.820312 C 15.300781 10.652344 14.917969 11.421875 14.433594 12.105469 C 14.316406 12.273438 14.199219 12.421875 14.097656 12.535156 L 14 12.648438 L 14 14.300781 C 14 15.007812 14.394531 15.644531 15.027344 15.960938 L 18.847656 17.871094 C 19.804688 18.347656 20.398438 19.3125 20.398438 20.382812 Z M 20.398438 21.601562"/>
</svg>

<svg xmlns="http://www.w3.org/2000/svg" width="32" height="32" viewBox="0 0 24 24">
    <path d="M19.207 17.156l-3.824-1.91a1.051 1.051 0 0 1-.582-.945v-1.356a9.153 9.153 0 0 0 1.469-2.7c.562-.257.93-.815.93-1.444V7.199c0-.383-.145-.758-.4-1.05V4.022c.024-.222.11-1.53-.835-2.609C15.14.477 13.809 0 12 0c-1.809 0-3.14.477-3.965 1.41-.945 1.082-.86 2.39-.836 2.613v2.125A1.614 1.614 0 0 0 6.801 7.2v1.602c0 .484.219.941.597 1.242a8.36 8.36 0 0 0 1.403 2.895v1.324c0 .386-.211.742-.551.93l-3.57 1.945a3.606 3.606 0 0 0-1.88 3.168v1.297C2.8 23.5 8.817 24 12 24c3.184 0 9.2-.5 9.2-2.398v-1.22a3.583 3.583 0 0 0-1.993-3.226zm1.191 4.446c0 .543-2.964 1.597-8.398 1.597-5.434 0-8.398-1.054-8.398-1.597v-1.297c0-1.028.558-1.973 1.46-2.465l3.57-1.945c.598-.329.97-.954.97-1.633v-1.606l-.094-.113a7.49 7.49 0 0 1-1.363-2.824l-.04-.16-.136-.086a.805.805 0 0 1-.367-.672V7.199c0-.222.093-.433.265-.59L8 6.492V4l-.004-.05c0-.013-.137-1.122.64-2.013C9.302 1.184 10.435.802 12 .802c1.563 0 2.691.379 3.355 1.129.778.883.649 2.008.649 2.02L16 6.491l.133.117a.793.793 0 0 1 .265.59v1.602a.793.793 0 0 1-.566.758l-.2.062-.066.2a8.327 8.327 0 0 1-1.132 2.284 4.619 4.619 0 0 1-.336.43l-.098.113v1.653c0 .707.395 1.344 1.027 1.66l3.82 1.91a2.79 2.79 0 0 1 1.551 2.512zm0 0"/>
</svg>
